apps/symbolic/user-info-symbolic.svg

<svg height="24" viewBox="0 0 24 24" width="24" xmlns="http://www.w3.org/2000/svg"><path d="m9.3 21a .9.9 0 0 1 -.9-.9v-2.7h-3.6a1.8 1.8 0 0 1 -1.8-1.8v-10.8c0-.999.81-1.8 1.8-1.8h14.4a1.8 1.8 0 0 1 1.8 1.8v10.8a1.8 1.8 0 0 1 -1.8 1.8h-5.49l-3.33 3.339c-.18.171-.405.261-.63.261zm6.3-7.2v-.9c0-1.197-2.403-1.8-3.6-1.8s-3.6.603-3.6 1.8v.9zm-3.6-7.2a1.8 1.8 0 0 0 -1.8 1.8 1.8 1.8 0 0 0 1.8 1.8 1.8 1.8 0 0 0 1.8-1.8 1.8 1.8 0 0 0 -1.8-1.8z" fill="#bebebe" stroke-width=".9"/></svg>

<?xml version="1.0" encoding="UTF-8" standalone="no"?>
<svg
   xmlns:dc="http://purl.org/dc/elements/1.1/"
   xmlns:cc="http://creativecommons.org/ns#"
   xmlns:rdf="http://www.w3.org/1999/02/22-rdf-syntax-ns#"
   xmlns:svg="http://www.w3.org/2000/svg"
   xmlns="http://www.w3.org/2000/svg"
   xmlns:sodipodi="http://sodipodi.sourceforge.net/DTD/sodipodi-0.dtd"
   xmlns:inkscape="http://www.inkscape.org/namespaces/inkscape"
   version="1.1"
   width="24"
   height="24"
   viewBox="0 0 24 24"
   id="svg2"
   inkscape:version="0.92.1 r15371"
   sodipodi:docname="user-info-symbolic.svg">
  <metadata
     id="metadata10">
    <rdf:RDF>
      <cc:Work
         rdf:about="">
        <dc:format>image/svg+xml</dc:format>
        <dc:type
           rdf:resource="http://purl.org/dc/dcmitype/StillImage" />
      </cc:Work>
    </rdf:RDF>
  </metadata>
  <defs
     id="defs8" />
  <sodipodi:namedview
     pagecolor="#ffffff"
     bordercolor="#666666"
     borderopacity="1"
     objecttolerance="10"
     gridtolerance="10"
     guidetolerance="10"
     inkscape:pageopacity="0"
     inkscape:pageshadow="2"
     inkscape:window-width="640"
     inkscape:window-height="480"
     id="namedview6"
     showgrid="false"
     inkscape:zoom="25.291667"
     inkscape:cx="4.9621087"
     inkscape:cy="12"
     inkscape:current-layer="svg2" />
  <path
     d="M 9.3,21 A 0.9,0.9 0 0 1 8.4,20.1 V 17.4 H 4.8 A 1.8,1.8 0 0 1 3,15.6 V 4.8 C 3,3.801 3.81,3 4.8,3 H 19.2 A 1.8,1.8 0 0 1 21,4.8 v 10.8 a 1.8,1.8 0 0 1 -1.8,1.8 h -5.49 l -3.33,3.339 C 10.2,20.91 9.975,21 9.75,21 v 0 H 9.3 m 6.3,-7.2 v -0.9 c 0,-1.197 -2.403,-1.8 -3.6,-1.8 -1.197,0 -3.6,0.603 -3.6,1.8 v 0.9 h 7.2 M 12,6.6 A 1.8,1.8 0 0 0 10.2,8.4 1.8,1.8 0 0 0 12,10.2 1.8,1.8 0 0 0 13.8,8.4 1.8,1.8 0 0 0 12,6.6 Z"
     id="path4"
     style="fill:#bebebe;fill-opacity:1;stroke-width:0.89999998"
     inkscape:connector-curvature="0" />
</svg>
